public/icons/chains/STARKNET.svg

<?xml version="1.0" encoding="UTF-8" standalone="no"?>
<!-- Created with Inkscape (http://www.inkscape.org/) -->

<svg
   width="25mm"
   height="25mm"
   viewBox="0 0 25 25"
   version="1.1"
   id="svg5"
   inkscape:version="1.1.2 (0a00cf5339, 2022-02-04)"
   sodipodi:docname="STARKNET-RECT.svg"
   xmlns:inkscape="http://www.inkscape.org/namespaces/inkscape"
   xmlns:sodipodi="http://sodipodi.sourceforge.net/DTD/sodipodi-0.dtd"
   xmlns="http://www.w3.org/2000/svg"
   xmlns:svg="http://www.w3.org/2000/svg">
  <sodipodi:namedview
     id="namedview7"
     pagecolor="#ffffff"
     bordercolor="#666666"
     borderopacity="1.0"
     inkscape:pageshadow="2"
     inkscape:pageopacity="0.0"
     inkscape:pagecheckerboard="0"
     inkscape:document-units="mm"
     showgrid="false"
     inkscape:zoom="3.5842859"
     inkscape:cx="73.794337"
     inkscape:cy="79.095253"
     inkscape:window-width="1850"
     inkscape:window-height="1016"
     inkscape:window-x="0"
     inkscape:window-y="0"
     inkscape:window-maximized="1"
     inkscape:current-layer="g1258"
     width="25mm" />
  <defs
     id="defs2">
    <clipPath
       id="clip0_94_348">
      <rect
         width="80"
         height="80"
         fill="#ffffff"
         transform="translate(9.85547,10)"
         id="rect23"
         x="0"
         y="0" />
    </clipPath>
  </defs>
  <g
     inkscape:label="Layer 1"
     inkscape:groupmode="layer"
     id="layer1">
    <g
       style="fill:none"
       id="g41"
       transform="scale(0.26458333)">
      <g
         id="g1258"
         transform="scale(0.9448819)">
        <rect
           width="100"
           height="100"
           fill="#ffffff"
           id="rect9"
           x="0"
           y="0"
           style="fill:#0c0c4f;fill-opacity:1" />
        <path
           fill-rule="evenodd"
           clip-rule="evenodd"
           d="m 9.85547,49.9994 c 0,22.0912 17.90813,39.9996 39.99943,39.9996 22.0912,0 40.0006,-17.9084 40.0006,-39.9996 C 89.8555,27.9081 71.9461,10 49.8549,10 27.7636,10 9.85547,27.9081 9.85547,49.9994 Z"
           fill="#0c0c4f"
           id="path11"
           style="stroke-width:1.00157;stroke-miterlimit:4;stroke-dasharray:none" />
        <path
           fill-rule="evenodd"
           clip-rule="evenodd"
           d="m 32.2116,40.5761 0.9874,-3.0505 c 0.2007,-0.6204 0.6904,-1.1032 1.3131,-1.2936 l 3.0655,-0.9427 c 0.4243,-0.1296 0.4278,-0.7282 0.0069,-0.8647 L 34.5328,33.4372 C 33.9135,33.2365 33.4307,32.7468 33.2392,32.124 L 32.2976,29.0586 C 32.168,28.6354 31.5694,28.6308 31.4329,29.0529 l -0.9874,3.0505 c -0.2007,0.6193 -0.6904,1.1021 -1.3131,1.2937 l -3.0655,0.9415 c -0.4243,0.1307 -0.4289,0.7282 -0.0069,0.8647 l 3.0517,0.9874 c 0.6193,0.2007 1.1022,0.6915 1.2937,1.3143 l 0.9415,3.0643 c 0.1296,0.4243 0.7282,0.4289 0.8647,0.0068 z"
           fill="#fafafa"
           id="path13"
           style="stroke-width:1.00157;stroke-miterlimit:4;stroke-dasharray:none" />
        <path
           fill-rule="evenodd"
           clip-rule="evenodd"
           d="m 80.6648,38.8003 c -1.2638,-1.4132 -3.236,-2.2088 -5.1534,-2.5351 -1.9327,-0.3134 -3.9595,-0.2843 -5.8674,0.0547 -3.8607,0.653 -7.3681,2.2516 -10.4273,4.2237 -1.5886,0.9679 -2.9433,2.0877 -4.3468,3.2283 -0.6763,0.5768 -1.2929,1.1911 -1.935,1.7966 l -1.7545,1.7457 c -1.9065,1.9927 -3.7856,3.8078 -5.6037,5.3123 -1.8255,1.4975 -3.5322,2.6349 -5.2141,3.4292 -1.6808,0.7983 -3.4794,1.2679 -5.8236,1.343 -2.3237,0.082 -5.0728,-0.3374 -8.0135,-1.0296 -2.9565,-0.6892 -6.0611,-1.6715 -9.5304,-2.5168 1.2105,3.3583 3.0334,6.326 5.3738,9.0391 2.3679,2.6658 5.3246,5.0952 9.1229,6.6932 3.7435,1.6334 8.4478,2.2197 12.8465,1.3352 4.4103,-0.8492 8.2806,-2.8897 11.409,-5.2502 3.1364,-2.3843 5.6739,-5.1003 7.8132,-7.924 0.5904,-0.7802 0.9028,-1.2168 1.3301,-1.8266 l 1.1813,-1.7496 c 0.8207,-1.0822 1.5681,-2.3144 2.3802,-3.3867 1.5929,-2.2456 3.1636,-4.4887 4.9884,-6.5552 0.9185,-1.0482 1.8871,-2.0508 3.0304,-3.0143 0.5701,-0.4703 1.1863,-0.9305 1.8688,-1.3451 0.6927,-0.4472 1.4243,-0.7972 2.3251,-1.0678 z"
           fill="#ec796b"
           id="path15"
           style="stroke-width:1.00157;stroke-miterlimit:4;stroke-dasharray:none" />
        <path
           fill-rule="evenodd"
           clip-rule="evenodd"
           d="m 80.6648,38.8004 c -1.3575,-3.4259 -3.8815,-6.3096 -7.2694,-8.4376 -3.3671,-2.1046 -8.0435,-3.1786 -12.678,-2.263 -2.2892,0.4427 -4.5072,1.2952 -6.4537,2.4304 -1.9376,1.1307 -3.6739,2.4918 -5.177,3.952 -0.7504,0.7325 -1.4315,1.4967 -2.1082,2.2652 l -1.7538,2.236 -2.7088,3.5994 c -3.4533,4.6311 -7.1721,10.0585 -13.2748,11.6666 -5.991,1.5788 -8.5894,0.1806 -12.246,-0.397 0.6686,1.7261 1.4968,3.4024 2.6195,4.8771 1.1018,1.5046 2.4033,2.9175 4.0213,4.1292 0.8177,0.5818 1.681,1.1559 2.6398,1.643 0.9545,0.4704 1.9837,0.8846 3.0824,1.196 2.1853,0.599 4.6456,0.8091 7.0277,0.4866 2.3832,-0.318 4.6612,-1.0729 6.6524,-2.076 2.0059,-0.9939 3.7532,-2.204 5.3135,-3.481 3.1015,-2.5756 5.5139,-5.4215 7.5518,-8.2982 1.025,-1.4383 1.9554,-2.9037 2.8159,-4.3695 l 1.0128,-1.7452 c 0.3097,-0.5101 0.6228,-1.0234 0.9407,-1.5013 1.2835,-1.9205 2.5387,-3.4604 4.0633,-4.6163 1.5033,-1.1857 3.5969,-2.0618 6.3944,-2.2652 2.7858,-0.206 6.002,0.1744 9.5342,0.9688 z"
           fill="#fafafa"
           id="path17"
           style="stroke-width:1.00157;stroke-miterlimit:4;stroke-dasharray:none" />
        <path
           fill-rule="evenodd"
           clip-rule="evenodd"
           d="m 65.5918,67.2645 c 0,2.5164 2.041,4.5569 4.557,4.5569 2.5164,0 4.5544,-2.0405 4.5544,-4.5569 0,-2.516 -2.038,-4.557 -4.5544,-4.557 -2.516,0 -4.557,2.041 -4.557,4.557 z"
           fill="#ec796b"
           id="path19"
           style="stroke-width:1.00157;stroke-miterlimit:4;stroke-dasharray:none" />
      </g>
    </g>
  </g>
</svg>

<svg width="100" height="100" viewBox="0 0 100 100" fill="none" xmlns="http://www.w3.org/2000/svg">
<rect width="100" height="100" fill="white"/>
<g clip-path="url(#clip0_94_348)">
<path fill-rule="evenodd" clip-rule="evenodd" d="M9.85547 49.9994C9.85547 72.0906 27.7636 89.999 49.8549 89.999C71.9461 89.999 89.8555 72.0906 89.8555 49.9994C89.8555 27.9081 71.9461 10 49.8549 10C27.7636 10 9.85547 27.9081 9.85547 49.9994Z" fill="#0C0C4F"/>
<path fill-rule="evenodd" clip-rule="evenodd" d="M32.2116 40.5761L33.199 37.5256C33.3997 36.9052 33.8894 36.4224 34.5121 36.232L37.5776 35.2893C38.0019 35.1597 38.0054 34.5611 37.5845 34.4246L34.5328 33.4372C33.9135 33.2365 33.4307 32.7468 33.2392 32.124L32.2976 29.0586C32.168 28.6354 31.5694 28.6308 31.4329 29.0529L30.4455 32.1034C30.2448 32.7227 29.7551 33.2055 29.1324 33.3971L26.0669 34.3386C25.6426 34.4693 25.638 35.0668 26.06 35.2033L29.1117 36.1907C29.731 36.3914 30.2139 36.8822 30.4054 37.505L31.3469 40.5693C31.4765 40.9936 32.0751 40.9982 32.2116 40.5761Z" fill="#FAFAFA"/>
<path fill-rule="evenodd" clip-rule="evenodd" d="M80.6648 38.8003C79.401 37.3871 77.4288 36.5915 75.5114 36.2652C73.5787 35.9518 71.5519 35.9809 69.644 36.3199C65.7833 36.9729 62.2759 38.5715 59.2167 40.5436C57.6281 41.5115 56.2734 42.6313 54.8699 43.7719C54.1936 44.3487 53.577 44.963 52.9349 45.5685L51.1804 47.3142C49.2739 49.3069 47.3948 51.122 45.5767 52.6265C43.7512 54.124 42.0445 55.2614 40.3626 56.0557C38.6818 56.854 36.8832 57.3236 34.539 57.3987C32.2153 57.4807 29.4662 57.0613 26.5255 56.3691C23.569 55.6799 20.4644 54.6976 16.9951 53.8523C18.2056 57.2106 20.0285 60.1783 22.3689 62.8914C24.7368 65.5572 27.6935 67.9866 31.4918 69.5846C35.2353 71.218 39.9396 71.8043 44.3383 70.9198C48.7486 70.0706 52.6189 68.0301 55.7473 65.6696C58.8837 63.2853 61.4212 60.5693 63.5605 57.7456C64.1509 56.9654 64.4633 56.5288 64.8906 55.919L66.0719 54.1694C66.8926 53.0872 67.64 51.855 68.4521 50.7827C70.045 48.5371 71.6157 46.294 73.4405 44.2275C74.359 43.1793 75.3276 42.1767 76.4709 41.2132C77.041 40.7429 77.6572 40.2827 78.3397 39.8681C79.0324 39.4209 79.764 39.0709 80.6648 38.8003Z" fill="#EC796B"/>
<path fill-rule="evenodd" clip-rule="evenodd" d="M80.6648 38.8004C79.3073 35.3745 76.7833 32.4908 73.3954 30.3628C70.0283 28.2582 65.3519 27.1842 60.7174 28.0998C58.4282 28.5425 56.2102 29.395 54.2637 30.5302C52.3261 31.6609 50.5898 33.022 49.0867 34.4822C48.3363 35.2147 47.6552 35.9789 46.9785 36.7474L45.2247 38.9834L42.5159 42.5828C39.0626 47.2139 35.3438 52.6413 29.2411 54.2494C23.2501 55.8282 20.6517 54.43 16.9951 53.8524C17.6637 55.5785 18.4919 57.2548 19.6146 58.7295C20.7164 60.2341 22.0179 61.647 23.6359 62.8587C24.4536 63.4405 25.3169 64.0146 26.2757 64.5017C27.2302 64.9721 28.2594 65.3863 29.3581 65.6977C31.5434 66.2967 34.0037 66.5068 36.3858 66.1843C38.769 65.8663 41.047 65.1114 43.0382 64.1083C45.0441 63.1144 46.7914 61.9043 48.3517 60.6273C51.4532 58.0517 53.8656 55.2058 55.9035 52.3291C56.9285 50.8908 57.8589 49.4254 58.7194 47.9596L59.7322 46.2144C60.0419 45.7043 60.355 45.191 60.6729 44.7131C61.9564 42.7926 63.2116 41.2527 64.7362 40.0968C66.2395 38.9111 68.3331 38.035 71.1306 37.8316C73.9164 37.6256 77.1326 38.006 80.6648 38.8004Z" fill="#FAFAFA"/>
<path fill-rule="evenodd" clip-rule="evenodd" d="M65.5918 67.2645C65.5918 69.7809 67.6328 71.8214 70.1488 71.8214C72.6652 71.8214 74.7032 69.7809 74.7032 67.2645C74.7032 64.7485 72.6652 62.7075 70.1488 62.7075C67.6328 62.7075 65.5918 64.7485 65.5918 67.2645Z" fill="#EC796B"/>
</g>
<defs>
<clipPath id="clip0_94_348">
<rect width="80" height="80" fill="white" transform="translate(9.85547 10)"/>
</clipPath>
</defs>
</svg>
